X:163
M:C
L:1/8
K:C Minor
E/D/|C>c c2 G>cc>d|B>FG>B D>B, G/F/E/D/|C>c c2 Gc/d/ e>c|
f>Bd>f b>f e/d/c/=B/|c>de>f g>ce>c|B>F G/F/E/D/ C2 C=B|
~c>de>f g>ce>g|f>Bd>f b/=a/g/f/ e/d/c/B/|g>ef>d e>cd>B|
c>GB>D C2D||

